X:925
T:Mo Dhachaidh
T:My Home
S:Orwell Ceilidh Band, Inchture
Z:Nigel Gatherer
M:3/4
L:1/4
K:Amix
e | c>BA | A>ce | a>gf | e2d | c>BA | A>Bc | d>cd | B2
e | c>BA | A>ce | a>gf | e2d | c>Ac | B>GB | A3   | A2 ||
e | A>Bc | c>Bc | e>dc | c2e | d>cd | B>cd | e>cA | A2
e | f>df | a>gf | e>dc | a2d | c>Ac | B>GB | A3   | A2 ||
<end>
<start>
